client/assets/icons/safe_payment_icon.svg

<svg class="icon icon-accordion" aria-hidden="true" focusable="false" xmlns="http://www.w3.org/2000/svg" width="20" height="20" viewBox="0 0 20 20">
      <path d="M11.571 1.05882C11.571 0.750194 11.8198 0.5 12.1266 0.5H13.4572C17.0692 0.5 20 3.45304 20 7.08924C20 10.7255 17.0692 13.6785 13.4572 13.6785L1.89992 13.7105L1.30855 13.1197L1.89992 12.5484L13.4572 12.5608C16.4541 12.5608 18.8889 10.1096 18.8889 7.08924C18.8889 4.06891 16.4541 1.61765 13.4572 1.61765H12.1266C11.8198 1.61765 11.571 1.36745 11.571 1.05882Z"></path>
      <path d="M6.00311 7.00677C6.22317 6.7917 6.57489 6.79679 6.78871 7.01815C7.00252 7.2395 6.99746 7.59329 6.7774 7.80836L6.00311 7.00677ZM1.30855 13.1197L6.73968 18.5463C6.9565 18.7647 6.95627 19.1185 6.73917 19.3366C6.52207 19.5547 6.17031 19.5544 5.9535 19.3361L0.162462 13.5034C0.0572388 13.3974 -0.00128425 13.2533 2.13868e-05 13.1036C0.00132703 12.9538 0.0623521 12.8108 0.169407 12.7067C0.3269 12.5535 1.78474 11.1291 3.20439 9.74186L6.00311 7.00677L6.7774 7.80836L3.97862 10.5435C2.95441 11.5444 1.8705 12.5709 1.30855 13.1197Z"></path>
    </svg>

<svg class="icon icon-accordion" aria-hidden="true" xmlns="http://www.w3.org/2000/svg" width="20" height="20"><path d="M11.571 1.059c0-.309.249-.559.556-.559h1.33C17.07.5 20 3.453 20 7.09c0 3.636-2.93 6.588-6.543 6.588L1.9 13.71l-.591-.59.59-.572 11.558.013c2.997 0 5.432-2.451 5.432-5.472 0-3.02-2.435-5.471-5.432-5.471h-1.33a.557.557 0 0 1-.556-.56Z"/><path d="M6.003 7.007a.553.553 0 0 1 .786.011.561.561 0 0 1-.012.79l-.774-.801ZM1.31 13.12l5.43 5.426a.561.561 0 0 1 0 .79.553.553 0 0 1-.785 0L.162 13.503a.56.56 0 0 1 .007-.796l3.035-2.965 2.8-2.735.773.801-2.798 2.736c-1.025 1-2.108 2.027-2.67 2.576Z"/></svg>
